X:1
T:Title
%%score { ( 1 3 ) | 2 }
L:1/8
M:4/4
K:Db
V:1 treble nm="Grand Piano"
V:3 treble 
V:2 bass 
V:1
 z4 z2[Q:1/4=100] [FA]>[_F=G] | [FB]2 [FA]2 [DF]2 [Fd]2 | [Gd]2 [Gc]4 B>A | c2 B2 [FA]2 [EG]2 | %4
[M:3/4] [_FB]2 [=FA]4 |[M:1/4] F>F |[M:4/4] E2 c2 E2 B2 | [CA]6 [CA]>[CA] | %8
 [CA]2 [CE]2 [_C=D]2 [=CE]2 | F6 F>F | [DB]2 [DF]2 c2 F2 | [Fd]6 [Fd]>[Fd] | e2 d2 c2 B2 | %13
 B2 A4 F>F | [FA]2 [FA]2 A2 A2 |[M:3/4] e6 |[M:1/4] A>d |[M:4/4] [Gc]2 [Gc]2 [Gc]2 [GB]2 | %18
 [Gc]2 [Gc]4 [GB]>[Gc] | [FB]2 [FA]2 [FA]2 [DF]2 |[M:3/4] [FA]6 |[M:1/4] F>F |[M:4/4] G2 E2 F2 G2 | %23
 A2 F2 G2 A2 | %24
 B2 d2 [Gd]2 c2[Q:1/4=98][Q:1/4=97][Q:1/4=95][Q:1/4=94][Q:1/4=92][Q:1/4=91][Q:1/4=89][Q:1/4=88][Q:1/4=86][Q:1/4=84][Q:1/4=83][Q:1/4=81][Q:1/4=80][Q:1/4=78][Q:1/4=77] | %25
[M:3/4] [Fd]6 |] %26
V:2
 z4 z2 [D,D]>[D,D] | [D,A,]2 [D,A,]2 [D,A,]2 [D,A,]2 | [E,A,]2 [E,A,]4[K:treble] [A,CG]>[A,CG] | %3
 [A,EG]2 [A,CG]2[K:bass] [A,,A,]2 [A,,A,]2 |[M:3/4] [D,=G,]2 [D,A,]4 |[M:1/4] [=D,A,B,]>[D,A,B,] | %6
[M:4/4] [E,A,C]2 [E,A,E]2 [E,=G,D]2 [E,G,D]2 | [A,,A,]6 [A,,A,]>[A,,A,] | %8
 [A,,A,]2 [A,,A,]2 [A,,A,]2 [A,,A,]2 | [D,A,D]6 [D,A,D]>[D,A,D] | %10
 [B,,B,]2 [B,,B,]2 [F,=A,F]2 [F,A,]2 | [B,,B,]6 [B,,B,]>[B,,B,] | %12
 [G,B,G]2 [G,B,G]2 [G,CG]2 [G,DG]2 | [D,D]6 [D,A,D]>[D,A,D] | %14
 [D,D]2 [D,D]2[K:treble] [A,CG]2 [A,CG]2 |[M:3/4] [A,CG]6 |[M:1/4] [A,G]>[A,B,G] | %17
[M:4/4][K:bass] [E,A,]2 [A,,A,]2 [E,A,]2 [A,,A,]2 | [E,A,]2 [E,A,]4 [E,A,]>[E,A,] | %19
 [D,A,]2 [A,,A,]2 [D,A,]2 [A,,A,]2 |[M:3/4] [D,A,]6 |[M:1/4] [D,A,D]>[D,A,D] | %22
[M:4/4] [E,A,C]2 [C,A,]2 [D,A,D]2 [E,A,C]2 | [F,A,D]2 [D,A,D]2 [E,A,C]2 [F,A,D]2 | %24
 [G,D]2 [G,B,G]2 [E,B,]2 [A,G]2 |[M:3/4] [D,A,]6 |] %26
V:3
 x8 | x8 | x8 | x8 |[M:3/4] x6 |[M:1/4] x2 |[M:4/4] x8 | x8 | x8 | x8 | x8 | x8 | x8 | F6 z2 | x8 | %15
[M:3/4] x6 |[M:1/4] x2 |[M:4/4] x8 | x8 | x8 |[M:3/4] x6 |[M:1/4] x2 |[M:4/4] x8 | x8 | x8 | %25
[M:3/4] x6 |] %26

